X: 1
T: Kevin McHugh's
M: 12/8
L: 1/8
R: slide
K: Gmaj
|:BA|B2B BAB GBB BAG|FAA AFD DFA AFD|
G2B BAB GBB BAB|def gdB GAG G:|
|:za|b2a age gag gfe|dBd gdB ABA A2a|
b2a age gag gfe|dBd gdB GAG G:|
